X: 21882
T: Kiss The Lass Ye Love Best
R: strathspey
M: 4/4
K: Dmajor
|:B|A2 F/G/A B<E E>B|A/A/A F>A d>e f<d|e/f/g f/g/a A<F E>F|A/A/A f>e d<D D:|
|:f|a>b a>f b<e e/f/g|a>b a>f d>e f<d|e/f/g f/g/a A<F E>F|A/A/A f>e d<D D:|

